assets/compare/mobile.svg

<svg width="28" height="29" viewBox="0 0 28 29" fill="none" xmlns="http://www.w3.org/2000/svg">
<path d="M13.9997 26.5669C7.55617 26.5669 2.33301 21.3437 2.33301 14.9002C2.33301 8.45669 7.55617 3.23352 13.9997 3.23352C20.4432 3.23352 25.6663 8.45669 25.6663 14.9002C25.6663 21.3437 20.4432 26.5669 13.9997 26.5669ZM13.9997 24.2335C16.475 24.2335 18.849 23.2502 20.5993 21.4999C22.3497 19.7495 23.333 17.3755 23.333 14.9002C23.333 12.4248 22.3497 10.0509 20.5993 8.30052C18.849 6.55018 16.475 5.56685 13.9997 5.56685C11.5243 5.56685 9.15035 6.55018 7.40001 8.30052C5.64967 10.0509 4.66634 12.4248 4.66634 14.9002C4.66634 17.3755 5.64967 19.7495 7.40001 21.4999C9.15035 23.2502 11.5243 24.2335 13.9997 24.2335V24.2335ZM11.7247 13.7335H17.4997V16.0669H11.7247C11.8257 16.5631 12.0543 17.0244 12.3878 17.4055C12.7212 17.7866 13.1482 18.0743 13.6266 18.2403C14.1051 18.4063 14.6185 18.4448 15.1163 18.3522C15.6142 18.2595 16.0793 18.0388 16.466 17.7119L18.4493 19.0337C17.7678 19.7756 16.8872 20.3058 15.9127 20.5609C14.9381 20.8161 13.9107 20.7854 12.953 20.4726C11.9954 20.1599 11.148 19.5782 10.5119 18.7969C9.87578 18.0157 9.47789 17.068 9.36567 16.0669H8.16634V13.7335H9.36451C9.47634 12.7319 9.87413 11.7836 10.5104 11.0019C11.1466 10.2202 11.9944 9.6382 12.9525 9.32535C13.9106 9.01251 14.9385 8.98206 15.9134 9.23764C16.8884 9.49323 17.7691 10.024 18.4505 10.7667L16.466 12.0885C16.0793 11.7615 15.6142 11.5408 15.1163 11.4482C14.6185 11.3555 14.1051 11.3941 13.6266 11.5601C13.1482 11.7261 12.7212 12.0138 12.3878 12.3949C12.0543 12.776 11.8257 13.2373 11.7247 13.7335Z" fill="#5BB5A2"/>
</svg>

<svg xmlns="http://www.w3.org/2000/svg" width="28" height="29" fill="none"><path fill="#5BB5A2" d="M14 26.567c-6.444 0-11.667-5.223-11.667-11.667C2.333 8.457 7.556 3.234 14 3.234c6.443 0 11.666 5.223 11.666 11.666 0 6.444-5.223 11.667-11.666 11.667Zm0-2.334a9.333 9.333 0 1 0 0-18.666 9.333 9.333 0 0 0 0 18.666Zm-2.275-10.5H17.5v2.334h-5.775a2.916 2.916 0 0 0 4.741 1.645l1.983 1.322a5.25 5.25 0 0 1-9.083-2.967h-1.2v-2.334h1.199a5.25 5.25 0 0 1 9.086-2.966l-1.985 1.322a2.916 2.916 0 0 0-4.741 1.644Z"/></svg>
